X:58
T: Wiedersehen an der Bahre
N: Q0056N
O: Osteuropa, Ungarn, Suedungarn, Komitat Tolnau
R: Ballade, Abschied, Enttaeuschung, Tod, Selbstmord
M: 5/8
L: 1/8
K: F
A | cAA2A | AGG2
G | Gdd2G | BA2z
c | Acf2A | GBd2
f | edc2G | BA2z
c | Acf2A | GBd2
f | edc2G | BA2z

